assets/img/icons/duotone-icons/Communication/Mail-attachment.svg

<?xml version="1.0" encoding="UTF-8"?>
<svg width="24px" height="24px" viewBox="0 0 24 24" version="1.1" xmlns="http://www.w3.org/2000/svg" xmlns:xlink="http://www.w3.org/1999/xlink">
    <!-- Generator: Sketch 52.2 (67145) - http://www.bohemiancoding.com/sketch -->
    <title>Stockholm-icons / Communication / Mail-attachment</title>
    <desc>Created with Sketch.</desc>
    <g id="Stockholm-icons-/-Communication-/-Mail-attachment" stroke="none" stroke-width="1" fill="none" fill-rule="evenodd">
        <rect id="bound" x="0" y="0" width="24" height="24"></rect>
        <path d="M14.8571499,13 C14.9499122,12.7223297 15,12.4263059 15,12.1190476 L15,6.88095238 C15,5.28984632 13.6568542,4 12,4 L11.7272727,4 C10.2210416,4 9,5.17258756 9,6.61904762 L10.0909091,6.61904762 C10.0909091,5.75117158 10.823534,5.04761905 11.7272727,5.04761905 L12,5.04761905 C13.0543618,5.04761905 13.9090909,5.86843034 13.9090909,6.88095238 L13.9090909,12.1190476 C13.9090909,12.4383379 13.8240964,12.7385644 13.6746497,13 L10.3253503,13 C10.1759036,12.7385644 10.0909091,12.4383379 10.0909091,12.1190476 L10.0909091,9.5 C10.0909091,9.06606198 10.4572216,8.71428571 10.9090909,8.71428571 C11.3609602,8.71428571 11.7272727,9.06606198 11.7272727,9.5 L11.7272727,11.3333333 L12.8181818,11.3333333 L12.8181818,9.5 C12.8181818,8.48747796 11.9634527,7.66666667 10.9090909,7.66666667 C9.85472911,7.66666667 9,8.48747796 9,9.5 L9,12.1190476 C9,12.4263059 9.0500878,12.7223297 9.14285008,13 L6,13 C5.44771525,13 5,12.5522847 5,12 L5,3 C5,2.44771525 5.44771525,2 6,2 L18,2 C18.5522847,2 19,2.44771525 19,3 L19,12 C19,12.5522847 18.5522847,13 18,13 L14.8571499,13 Z" id="Combined-Shape" fill="#335EEA" opacity="0.3"></path>
        <path d="M9,10.3333333 L9,12.1190476 C9,13.7101537 10.3431458,15 12,15 C13.6568542,15 15,13.7101537 15,12.1190476 L15,10.3333333 L20.2072547,6.57253826 C20.4311176,6.4108595 20.7436609,6.46126971 20.9053396,6.68513259 C20.9668779,6.77033951 21,6.87277228 21,6.97787787 L21,17 C21,18.1045695 20.1045695,19 19,19 L5,19 C3.8954305,19 3,18.1045695 3,17 L3,6.97787787 C3,6.70173549 3.22385763,6.47787787 3.5,6.47787787 C3.60510559,6.47787787 3.70753836,6.51099993 3.79274528,6.57253826 L9,10.3333333 Z M10.0909091,11.1212121 L12,12.5 L13.9090909,11.1212121 L13.9090909,12.1190476 C13.9090909,13.1315697 13.0543618,13.952381 12,13.952381 C10.9456382,13.952381 10.0909091,13.1315697 10.0909091,12.1190476 L10.0909091,11.1212121 Z" id="Combined-Shape" fill="#335EEA"></path>
    </g>
</svg>

<svg width="24" height="24" viewBox="0 0 24 24" xmlns="http://www.w3.org/2000/svg"><g fill="none" fill-rule="evenodd"><path d="M0 0h24v24H0z"/><path d="M14.857 13c.093-.278.143-.574.143-.881V6.881C15 5.29 13.657 4 12 4h-.273C10.221 4 9 5.173 9 6.619h1.09c0-.868.734-1.571 1.637-1.571H12c1.054 0 1.91.82 1.91 1.833v5.238c0 .32-.086.62-.235.881h-3.35a1.768 1.768 0 01-.234-.881V9.5c0-.434.366-.786.818-.786.452 0 .818.352.818.786v1.833h1.091V9.5c0-1.013-.855-1.833-1.909-1.833S9 8.487 9 9.5v2.619c0 .307.05.603.143.881H6a1 1 0 01-1-1V3a1 1 0 011-1h12a1 1 0 011 1v9a1 1 0 01-1 1h-3.143z" fill="#335EEA" opacity=".3"/><path d="M9 10.333v1.786C9 13.71 10.343 15 12 15s3-1.29 3-2.881v-1.786l5.207-3.76a.5.5 0 01.793.405V17a2 2 0 01-2 2H5a2 2 0 01-2-2V6.978a.5.5 0 01.793-.405L9 10.333zm1.09.788L12 12.5l1.91-1.379v.998c0 1.013-.856 1.833-1.91 1.833-1.054 0-1.91-.82-1.91-1.833v-.998z" fill="#335EEA"/></g></svg>
